images_sukapura_svg/cmd/lc_stylenewbyexample.svg

<svg viewBox="0 0 24 24" xmlns="http://www.w3.org/2000/svg" xmlns:xlink="http://www.w3.org/1999/xlink"><filter id="a" color-interpolation-filters="sRGB" height="1.135959" width="1.153052" x="-.076526" y="-.067979"><feGaussianBlur stdDeviation=".44180839"/></filter><radialGradient id="b" cx="55.498295" cy="20.746534" gradientTransform="matrix(1 0 0 .72181261 0 7.10169)" gradientUnits="userSpaceOnUse" r="10.03901"><stop offset="0" stop-color="#ffc765"/><stop offset="1" stop-color="#ffa914"/></radialGradient><radialGradient id="c" cx="55.441967" cy="22.525862" gradientTransform="matrix(1.2258064 0 0 1.0478667 -12.519154 -1.07824)" gradientUnits="userSpaceOnUse" r="2.229184"><stop offset="0" stop-color="#ffe9c3"/><stop offset="1" stop-color="#ffe9c3" stop-opacity="0"/></radialGradient><path d="m11.723339 14.263736h-5.9466774l-1.2102009 3.736264h-2.5664607l5.5815302-16h2.3995362l5.5189336 16h-2.576893zm-5.2163837-2.230769h4.4965227l-2.2013143-6.8351648h-.062598z" fill="#4b4b4f"/><g transform="matrix(.66847283 0 0 .66847283 -26.031719 2.090803)"><path d="m57.661017 18.305085 12.20339-12.0000003 1.118644-1.0169491c.535947-.4093238 1.138074-.6755092 2.338983-.6101695l.813559.6101695c.306849.6596707.152068 1.3286734.101695 2.0338983l-11.694915 16.7796611z" fill="#d6d6d6" stroke="#98989d" stroke-width="1.495947"/><path d="m59.389831 19.322034 12.813559-13.1186442.686441-.5338983.355932.3305085-12.122973 15.267452z" fill="#f9f9f9" filter="url(#a)"/><path d="m54.915254 19.525424c-2.355192 1.12312-2.986044 2.645733-4.067796 4.881356-1.280902 3.099136-3.365034 4.179849-6 5.898305 4.002224 2.208107 12.344829 3.382311 15.355932-1.016949 1.803572-2.317145 5.097789-5.637418 1.932203-8.237289-2.997587-2.267403-4.004437-2.954713-7.220339-1.525423z" fill="url(#b)" stroke="#f58b00" stroke-width="1.495947"/><path d="m49.395592 26.820763c-1.20494 1.428749-2.746668 2.309185-4.547936 3.483925 4.002224 2.208106 12.344366 3.383635 15.355469-1.015626-2.950168-3.198325-8.750083-1.802762-10.807533-2.468299z" fill="#0a84ff" stroke="#0040dd" stroke-width="1.495947"/><ellipse cx="55.441967" cy="22.525862" fill="url(#c)" rx="2.732548" ry="2.335888"/></g><path d="m17.289062 9-3.289062 3.253906v1.746094h-1.808594c-.107118.027004-1.745922.445988-2.191406.785156v4.214844h4v3.5c.006082.003331.134766.076172.134766.076172l1.423828-2.28711s.661844-1.374536.865234-1.730468c.178794-.31289 2.392815-3.6512 2.994141-4.558594h-.417969v-5z" fill="#fff" fill-opacity=".784314"/><path d="m16.5 10.5c-.554 0-1 .446-1 1v3.978516h-3.5c-.554 0-1 .446-1 1v.021484c0 .554.446 1 1 1h3.5v4c0 .554.446 1 1 1s1-.446 1-1v-4h4.013672c.554 0 1-.446 1-1v-.02148c0-.554-.446-1-1-1h-4.013672v-3.97852c0-.554-.446-1-1-1z" fill="#32d74b" stroke="#1ec337"/></svg>

<?xml version="1.0" encoding="UTF-8" standalone="no"?>
<svg
   xmlns:dc="http://purl.org/dc/elements/1.1/"
   xmlns:cc="http://creativecommons.org/ns#"
   xmlns:rdf="http://www.w3.org/1999/02/22-rdf-syntax-ns#"
   xmlns:svg="http://www.w3.org/2000/svg"
   xmlns="http://www.w3.org/2000/svg"
   xmlns:sodipodi="http://sodipodi.sourceforge.net/DTD/sodipodi-0.dtd"
   xmlns:inkscape="http://www.inkscape.org/namespaces/inkscape"
   viewBox="0 0 24 24"
   version="1.1"
   id="svg33"
   sodipodi:docname="lc_stylenewbyexample.svg"
   inkscape:version="0.92.3 (2405546, 2018-03-11)">
  <metadata
     id="metadata39">
    <rdf:RDF>
      <cc:Work
         rdf:about="">
        <dc:format>image/svg+xml</dc:format>
        <dc:type
           rdf:resource="http://purl.org/dc/dcmitype/StillImage" />
      </cc:Work>
    </rdf:RDF>
  </metadata>
  <defs
     id="defs37" />
  <sodipodi:namedview
     pagecolor="#ffffff"
     bordercolor="#666666"
     borderopacity="1"
     objecttolerance="10"
     gridtolerance="10"
     guidetolerance="10"
     inkscape:pageopacity="0"
     inkscape:pageshadow="2"
     inkscape:window-width="1366"
     inkscape:window-height="716"
     id="namedview35"
     showgrid="false"
     inkscape:zoom="9.8333333"
     inkscape:cx="-2.4915254"
     inkscape:cy="12"
     inkscape:window-x="-8"
     inkscape:window-y="-8"
     inkscape:window-maximized="1"
     inkscape:current-layer="svg33" />
  <filter
     id="a"
     color-interpolation-filters="sRGB"
     height="1.135959"
     width="1.153052"
     x="-.076526"
     y="-.067979">
    <feGaussianBlur
       stdDeviation=".44180839"
       id="feGaussianBlur2" />
  </filter>
  <radialGradient
     id="b"
     cx="55.498295"
     cy="20.746534"
     gradientTransform="matrix(1 0 0 .72181261 0 7.10169)"
     gradientUnits="userSpaceOnUse"
     r="10.03901">
    <stop
       offset="0"
       stop-color="#ffc765"
       id="stop5" />
    <stop
       offset="1"
       stop-color="#ffa914"
       id="stop7" />
  </radialGradient>
  <radialGradient
     id="c"
     cx="55.441967"
     cy="22.525862"
     gradientTransform="matrix(1.2258064 0 0 1.0478667 -12.519154 -1.07824)"
     gradientUnits="userSpaceOnUse"
     r="2.229184">
    <stop
       offset="0"
       stop-color="#ffe9c3"
       id="stop10" />
    <stop
       offset="1"
       stop-color="#ffe9c3"
       stop-opacity="0"
       id="stop12" />
  </radialGradient>
  <path
     inkscape:connector-curvature="0"
     d="M 11.723339,14.263736 H 5.7766616 L 4.5664607,18 H 2 L 7.5815302,2 H 9.9810664 L 15.5,18 H 12.923107 Z M 6.5069553,12.032967 H 11.003478 L 8.8021637,5.1978022 h -0.062598 z"
     style="font-style:normal;font-variant:normal;font-weight:500;font-stretch:normal;font-size:25.3161602px;line-height:1.25;font-family:Roboto;-inkscape-font-specification:'Roboto Medium';letter-spacing:0px;word-spacing:0px;fill:#4b4b4f;fill-opacity:1;stroke:none;stroke-width:0.54821259"
     id="path15704" />
  <g
     transform="matrix(.66847283 0 0 .66847283 -26.031719 2.090803)"
     id="g27">
    <path
       d="m57.661017 18.305085 12.20339-12.0000003 1.118644-1.0169491c.535947-.4093238 1.138074-.6755092 2.338983-.6101695l.813559.6101695c.306849.6596707.152068 1.3286734.101695 2.0338983l-11.694915 16.7796611z"
       fill="#d6d6d6"
       stroke="#98989d"
       stroke-width="1.495947"
       id="path17" />
    <path
       d="m59.389831 19.322034 12.813559-13.1186442.686441-.5338983.355932.3305085-12.122973 15.267452z"
       fill="#f9f9f9"
       filter="url(#a)"
       id="path19" />
    <path
       d="m54.915254 19.525424c-2.355192 1.12312-2.986044 2.645733-4.067796 4.881356-1.280902 3.099136-3.365034 4.179849-6 5.898305 4.002224 2.208107 12.344829 3.382311 15.355932-1.016949 1.803572-2.317145 5.097789-5.637418 1.932203-8.237289-2.997587-2.267403-4.004437-2.954713-7.220339-1.525423z"
       fill="url(#b)"
       stroke="#f58b00"
       stroke-width="1.495947"
       id="path21" />
    <path
       d="m49.395592 26.820763c-1.20494 1.428749-2.746668 2.309185-4.547936 3.483925 4.002224 2.208106 12.344366 3.383635 15.355469-1.015626-2.950168-3.198325-8.750083-1.802762-10.807533-2.468299z"
       fill="#0a84ff"
       stroke="#0040dd"
       stroke-width="1.495947"
       id="path23" />
    <ellipse
       cx="55.441967"
       cy="22.525862"
       fill="url(#c)"
       rx="2.732548"
       ry="2.335888"
       id="ellipse25" />
  </g>
  <path
     d="m17.289062 9-3.289062 3.253906v1.746094h-1.808594c-.107118.027004-1.745922.445988-2.191406.785156v4.214844h4v3.5c.006082.003331.134766.076172.134766.076172l1.423828-2.28711s.661844-1.374536.865234-1.730468c.178794-.31289 2.392815-3.6512 2.994141-4.558594h-.417969v-5z"
     fill="#fff"
     fill-opacity=".784314"
     id="path29" />
  <path
     d="m16.5 10.5c-.554 0-1 .446-1 1v3.978516h-3.5c-.554 0-1 .446-1 1v.021484c0 .554.446 1 1 1h3.5v4c0 .554.446 1 1 1s1-.446 1-1v-4h4.013672c.554 0 1-.446 1-1v-.02148c0-.554-.446-1-1-1h-4.013672v-3.97852c0-.554-.446-1-1-1z"
     fill="#32d74b"
     stroke="#1ec337"
     id="path31" />
</svg>
